!!!!SEGMENT: pl-wtm--r-1341_stefani-jozef--polonez.krn
!!!cenid: 18xx:1846
!!!COM: Stefani, Józef
!!!COM-rism: pe30024097
!!!CDT: 1800/04/16-1876/03/19
!!!CNT: Polish
!!!OTL: Polonez
!!!PDT:
!!!AGN: Secular: Polonaise
!!!SMS-siglum: PL-Wtm
!!!SMS-shelfmark: R 1341
!!!NIFC-rismID: 1001119393
!!!URL-scan: http://repozytorium.nifc.pl/skany/pl-wtm-nut--r1341
!!!ONB-nifc:
!!!OMD: Polonez.
!!!SMS-variant:
!!!SMS-altvar:
**kern	**kern	**dynam
*part1	*part1	*part1
*staff2	*staff1	*
*I"Fortepian	*I"Fortepian	*
*clefF4	*clefG2	*
*k[]	*k[]	*
*M3/4	*M3/4	*
*>[A,B,A,B,C,B,D,E,D,E,F,E,A,B,C,B]	*>[A,B,A,B,C,B,D,E,D,E,F,E,A,B,C,B]	*>[A,B,A,B,C,B,D,E,D,E,F,E,A,B,C,B]
=1	=1	=1
*>A	*>A	*>A
!	!	!LO:DY:rj
(32qqGG/LLL	(32qqG/LLL	f
32qqAA/	32qqA/	.
32qqBB/JJJ	32qqB/JJJ	.
8C\L)	8c/L)	.
16GG\L	16G</L	.
16GG\JJ	16G</JJ	.
8C\L	8cL 8E</	.
8GG\	8G</	.
8C\	8c 8E</	.
8DJ 8GG\	8dJ 8G</	.
=2	=2	=2
8EL 8C\	8eL 8c/	.
16GG\L	16G</L	.
16GG\JJ	16G</JJ	.
8EL 8C\	8eL 8c 8E</	.
8D 8GG\	8d 8G</	.
8E 8C\	8e 8c/	.
8A-XJ 8AA-X\	8fJ 8c/	.
=3	=3	=3
8G 8GG\	8gL 8B/	.
(32GG/LLL	(<32g/LL	.
32AA/	32a/	.
32BB/	32b/	.
32C/JJJ	32cc/JJJ	.
8D/L)	8dd\L)	.
(<32BB/LL	(32b\LL	.
32C/	32cc\	.
32D/	32dd\	.
32E/JJJ	32ee\JJJ	.
8F\L)	8ff\L)	.
(32D\LL	(32dd\LL	.
32E\	32ee\	.
32F\	32ff\	.
32G\JJJ	32gg\JJJ	.
!!LO:LB:g=original
=4	=4	=4
8.A\L)	8.aa\L)	.
16G'\Jk	16gg'\Jk	.
16F'\LL	16ff'\LL	.
16E'\	16ee'\	.
16D'\	16dd'\	.
16C'\JJ	16cc'\JJ	.
16BB'/LL	16b'/LL	.
16AA'/	16a'/	.
16GG'/	16g'/	.
16FF'/JJ	16f'/JJ	.
=5	=5	=5
!	!LO:TX:t=P:problem:mixed beam	!
8EE/	8e/L	.
16ALL 16AA\	16cccL 16ee 16cc\	.
16AJJ 16AA\	16cccJJ 16ee 16cc\	.
8AL 8AA\	8cccL 8ee 8cc\	.
8AJ 8AA\	8cccJ 8ee 8cc\	.
8A-XL 8AA-X\	8ff#XL 8dd 8cc\	.
8A-J 8AA-\	8ff#J 8dd 8cc\	.
=6	=6	=6
8G 8GG/	8gg 8dd 8b\	.
(16F#X\LL	(16f#X/LL	.
16A\JJ	16a/JJ	.
8G\)	8g/)	.
8FnL 8FF/	8bL 8a-X 8d'/	.
8E-X 8EE-X/	8cc 8g 8c'/	.
8CJ 8CC/	8ee-XJ 8cc 8g'/	.
!!LO:LB:g=original
=7	=7	=7
8G 8GG/	8dd 8b 8g/	.
(16F#X\LL	(16f#X/LL	.
16A-X\JJ	16a-X/JJ	.
8G\)	8g/)	.
8GL 8GG/	8ddL 8b 8g'/	.
8C 8CC/	8ee-X 8cc 8g'/	.
8E-XJ 8EE-X/	8ccJ 8g 8c'/	.
=8	=8	=8
4G 4GG/	4b 4g 4d/	.
4r	16r	.
.	(16g/LL	.
.	16f#X/	.
.	16g/JJ	.
4r	16a/LL	.
.	16b/	.
.	16cc/	.
!LO:TX:t=[segno]:problem:segno na kresce taktowej	!LO:TX:t=[segno]:problem:segno na kresce taktowej	!
.	16dd/JJ)	.
=9||	=9||	=9||
*>B	*>B	*>B
*^	*	*
!LO:N:vis=2	!	!	!
8C\L	2C/	(4.ee\	p
8c 8G 8E\	.	.	.
8c 8G 8E\	.	.	.
8cJ 8G 8E\	.	16ff#X\LL	.
.	.	16gg\JJ)	.
!LO:TX:t=P:problem:mixed beam	!	!	!
8GG/L	4r	8dd'\L	.
8BJ 8G 8F 8D\	.	(16ff#\L	.
.	.	16gg\JJ)	.
!!LO:LB:g=original
=10	=10	=10	=10
!LO:N:vis=2	!	!	!
8C\L	2C/	(16ee\LL	.
.	.	16ff\	.
8c 8G 8E\	.	16ee\	.
.	.	16dd\JJ	.
8c 8G 8E\	.	8cc\)	.
8cJ 8G 8E\	.	(16b\LL	.
.	.	16cc\JJ	.
8C\L	4C/	16dd\LL	.
.	.	16ee\	.
8cJ 8A 8F\	.	16ff\	.
.	.	16gg\JJ	.
=11	=11	=11	=11
!LO:N:vis=2	!	!	!
8C\L	2C/	4.aa\)	.
8c 8A 8F\	.	.	.
8c 8A 8F\	.	.	.
8cJ 8A 8F\	.	(16bb\LL	.
.	.	16ccc\JJ)	.
8C\L	4C/	8ff'\L	.
8cJ 8A 8F\	.	(16gg#X\L	.
.	.	16aa\JJ)	.
=12	=12	=12	=12
4C/	8C\L	(16gg\LL	.
.	.	16aa\	.
.	8cJ 8G 8E\	16gg\	.
.	.	16ff#X\JJ	.
4C/	8C\L	16gg\)	.
.	.	(16aaa\LL	.
.	8cJ 8G 8E\	16ggg\	.
.	.	16fff#X\JJ	.
8c 8G 8E 8C\	4r	8ggg\)	.
8r	.	8ee\	.
!!LO:LB:g=original
=13	=13	=13	=13
!LO:TX:t=P:problem:mixed beam	!	!	!
8GG#X/L	4GG#\	(16ff\LL	.
.	.	16ee\	.
8dJ 8B 8E\	.	16dd\	.
.	.	16b\JJ	.
*tremolo	*	*	*
*2\right	*	*	*
8dL 8B 8E\	2r	8dd\L)	.
8d 8B 8E\	.	(16bb\L	.
.	.	16ccc\JJ	.
8d 8B 8E\	.	8ddd\L)	.
8dJ 8B 8E\	.	8ee'\J	.
*Xtremolo	*	*	*
*v	*v	*	*
=14	=14	=14
!LO:TX:t=P:problem:mixed beam	!	!
8AA/L	(16ff\LL	.
.	16ee\	.
8c 8A 8E\	16cc\	.
.	16b\JJ	.
8c 8A 8E\	8a/)	.
8cJ 8A 8E\	(16aa\LL	.
.	16bb\J	.
8c 8A 8E\	8ccc\J)	.
8r	8a/	.
=15	=15	=15
!	!	!LO:DY:rj
16FLL 16FF/	16aaLL 16cc 16a\	f
16F 16FF/	16aa 16cc 16a\	.
16F 16FF/	16aa 16cc 16a\	.
16FJJ 16FF/	16aaJJ 16cc 16a\	.
8F 8FF/	8aa 8cc 8a\	.
8cL 8A 8F\	(16a\LL	.
.	16b\J	.
8c 8A 8F\	8cc\)	.
8dJ 8A 8F\	8ddJ 8a'\	.
!!LO:LB:g=original
=16	=16	=16
4e 4B 4E\	8eeL 8g#X\	.
.	8eeJ 8g#\	.
4d 4D\	8r	.
.	8ff 8dd 8a\	.
4G 4GG/	8r	.
.	8gg#y 8b 8g#\	.
=17	=17	=17
*^	*	*
!LO:N:vis=2	!	!	!
8C\L	2C/	16ee'\LL	.
.	.	16ee'\	.
8c 8G 8E\	.	16ee'\	.
.	.	16ee'\JJ	.
8c 8G 8E\	.	16ee'\LL	.
.	.	16ee'\	.
8cJ 8G 8E\	.	(16ff#X\	.
.	.	16gg\JJ)	.
!LO:TX:t=P:problem:mixed beam	!	!	!
8GG/L	4r	16dd'\LL	.
.	.	16dd'\	.
8BJ 8G 8F 8D\	.	(16ff#\	.
.	.	16gg\JJ)	.
=18	=18	=18	=18
!LO:N:vis=2	!	!	!
8C\L	2C/	(16ee\LL	.
.	.	16ff\	.
8c 8G 8E\	.	16ee\	.
.	.	16dd\JJ	.
8c 8G 8E\	.	8cc\L)	.
8cJ 8G 8E\	.	(16b\L	.
.	.	16cc\JJ	.
8C\L	4C/	16dd\LL	.
.	.	16ee\	.
8cJ 8G 8E\	.	16ff\	.
.	.	16gg\JJ	.
*v	*v	*	*
!!LO:PB:g=original
=19	=19	=19
*^	*	*
*	*	*tremolo	*
!LO:N:vis=2	!	!LO:TX:a:t=....	!
!	!	!LO:TX:a:t=P:problem:brak zakończenia łuku	!
8C\L	2C/	16aa'\LL)	.
.	.	16aa'\	.
8c 8A 8F\	.	16aa'\	.
.	.	16aa'\JJ	.
*	*	*Xtremolo	*
8c 8A 8F\	.	16aa'\LL	.
.	.	16aa'\	.
8cJ 8A 8F\	.	(16bb\	.
.	.	16ccc\JJ)	.
8C\L	4C/	16ff'\LL	.
.	.	16ff'\	.
8cJ 8A 8F\	.	(16gg#X\	.
.	.	16aa\JJ)	.
=20	=20	=20	=20
!LO:N:vis=2	!	!	!
8C\L	2C/	(16gg\LL	.
.	.	16aa\	.
8c 8G 8E\	.	16gg\	.
.	.	16ff#X\JJ)	.
8c 8G 8E\	.	(16gg\LL	.
.	.	16aa\	.
8cJ 8G 8E\	.	16gg\	.
.	.	16ff#\JJ	.
8c 8G 8E 8C\	4r	8.gg\L)	.
8r	.	.	.
!	!	!	!
.	.	16ffn\Jk|	.
*v	*v	*	*
=21	=21	=21
*^	*	*
*	*	*tremolo	*
!LO:N:vis=2	!	!LO:TX:a:t=....	!
8C\L	2C/	16ee'\LL	.
.	.	16ee'\	.
8c 8G 8E\	.	16ee'\	.
.	.	16ee'\JJ	.
*	*	*Xtremolo	*
8c 8G 8E\	.	16ee'\LL	.
.	.	16ee'\	.
8cJ 8G 8E\	.	(16ff#X\	.
.	.	16gg\JJ)	.
!LO:TX:t=P:problem:mixed beam	!	!	!
8GG/L	4r	16dd'\LL	.
.	.	16dd'\	.
8BJ 8G 8F 8D\	.	(16ff#\	.
.	.	16gg\JJ)	.
*v	*v	*	*
!!LO:LB:g=original
=22	=22	=22
!LO:TX:t=P:problem:mixed beam	!	!
8AA/L	(16ee\LL	.
.	16ff\	.
8c 8A 8E\	16ee\	.
.	16dd\JJ	.
8c 8A 8E\	16cc\LL	.
.	16dd\	.
8cJ 8A 8E\	16cc\	.
.	16b\JJ)	.
8d#XL 8c 8A 8F#X\	(16a/LL	.
.	16b/	.
8d#J 8c 8A 8F#\	16cc/	.
.	16a/JJ)	.
=23	=23	=23
!	!LO:TX:t=P:problem:mixed beam	!
8e 8c 8G\	8g/L|	.
8r	(16eeeL 16ccc\	.
.	16dddJJ 16bb\	.
4r	16cccLL 16aa\	.
.	16bb 16gg\	.
.	16aa 16ff\	.
.	16ggJJ 16ee\)	.
4r	(16ffLL 16dd\	.
.	16ee 16cc\	.
.	16dd 16b\	.
.	16eeJJ 16cc\)	.
=24	=24	=24
*	*^	*
8fL 8d 8G\	(16gg/LL	8.b\L	.
.	16ff/	.	.
8fJ 8d 8G\	16dd/	.	.
.	16b/JJ)	16b\Jk	.
8r	(4dd\	2r	.
8fL 8B 8G\	.	.	.
8eJ 8c\	8cc\)	.	.
!	!LO:TX:t=P:problem:fermata nad kreską taktową	!	!
8r	8r;	.	.
*	*v	*v	*
!!LO:LB:g=original
=25:|!	=25:|!	=25:|!
*>C	*>C	*>C
!	!	!LO:DY:rj
8E 8EE/	8eeL 8g#X 8e'>/	f
16BLL 16G#X 16E\	16bL 16g# 16e'>/	.
16BJJ 16G# 16E\	16bJJ 16g# 16e'>/	.
8BL 8G# 8E\	8eeL 8g# 8e'>/	.
8B 8G# 8E\	8b 8g# 8e'>/	.
8B 8G# 8E\	8ee 8b 8g#'>/	.
8BJ 8F#X 8BB\	8ff#XJ 8dd#X 8b'>/	.
=26	=26	=26
8BL 8G#X 8E\	8gg#XL 8ee 8b'\	.
16BL 16G# 16E\	16eeL 16b 16g#X'\	.
16BJJ 16G# 16E\	16eeJJ 16b 16g#'\	.
8BL 8G# 8E\	8gg#L 8ee 8b'\	.
8B 8G# 8E\	8ee 8b 8g#'\	.
8B 8G# 8E\	8gg# 8ee 8b'\	.
8BJ 8F#X 8BB\	8aaJ 8ff#X 8dd#X 8b'\	.
=27	=27	=27
*tremolo	*	*
8BL 8G#X 8E\	8gg#X 8ee 8b'\	.
8B 8G# 8E\	(16aa#X\LL	mf
.	16bb\JJ	.
8B 8G# 8E\	8ccc\L	.
8B 8G# 8E\	8ddd#X\)	.
8B 8G# 8E\	8ccc#X'\	.
8BJ 8G# 8E\	8bb'\J	.
*Xtremolo	*	*
!!LO:LB:g=original
=28	=28	=28
!LO:TX:t=P:problem:mixed beam	!	!
8AA/L	8bb#X'\	.
8f#XJ 8c#X 8A\	4ccc#X'^<\	.
!LO:TX:t=P:problem:mixed beam	!	!
8AA/L	.	.
8f#J 8c# 8A\	(16ddd#X\LL	.
.	16ccc#\J)	.
!LO:TX:t=P:problem:mixed beam	!	!
8BB/L	8aa'\	.
8f#J 8d#X 8A\	8ff#X'\J	.
=29	=29	=29
8E 8EE/	8ff##X'\	.
8B 8G#X 8E'\	4gg#X'^<\	.
*tremolo	*	*
8BL 8G# 8E'\	.	.
8B 8G# 8E'\	(16aa#X\LL	.
.	16bb\JJ	.
8B 8G# 8E'\	16eee\LL	.
.	16ddd#X\)	.
8BJ 8G# 8E'\	16ccc#X'\	.
.	16bb'\JJ	.
*Xtremolo	*	*
=30	=30	=30
*^	*	*
8AA/L	4AA\	8bb#X'\	.
8AJ 8F#X 8C#X/	.	4ccc#X'^<\	.
*rep	*rep	*	*
8AA/L	4AA\	.	.
8AJ 8F#X 8C#X/	.	(16fff\LL	.
.	.	16eee#X\JJ)	.
*Xrep	*Xrep	*	*
*rep	*rep	*	*
8AA/L	4AA\	(16fff\LL	.
.	.	16eeen\)	.
8AJ 8F#X 8C#X/	.	16ddd#X'\	.
.	.	16ccc#'\JJ	.
*Xrep	*Xrep	*	*
!!LO:LB:g=original
=31	=31	=31	=31
4BB/	8BB\L	16bb'\LL	.
.	.	16b'\	.
.	8G#XJ 8E\	16ee'\	.
.	.	16gg#X'\JJ	.
8G# 8E 8BB\	2r	8bb'\	.
8r	.	8r	.
4A 4F#X 4BB\	.	4dd#Xt\	.
*v	*v	*	*
.	(32qqcc#X/LLL	.
.	32qqdd#/JJJ)	.
=32	=32	=32
!	!	!LO:DY:rj
4G#X 4E\	8ee\L	f
.	8eeJ 8b 8g#X\	.
4d 4D\	8r	.
.	8ffn 8a 8f\	.
4Gn 4GGn/	8r	.
!LO:TX:t=[segno]:problem:znak segno na kresce taktowej	!LO:TX:t=[segno]:problem:znak segno na kresce taktowej	!
!	!LO:TX:b:i:t=d`al segno al fine\ne poi Trio.	!
.	8ggn 8b 8gn\	.
!!LO:PB:g=original
=33||	=33||	=33||
!!!OMD: Trio.
*>D	*>D	*>D
*k[b-]	*k[b-]	*
*M3/4	*M3/4	*
!	!	!LO:DY:rj
4F 4FF/	8fL 8c 8A/	f
.	8fJ 8c 8A/	p
4D 4DD/	8r	.
.	8f 8d 8A/	.
4C 4CC/	8r	.
.	8g 8e 8c/	.
=34	=34	=34
!	!	!LO:DY:rj
4F 4FF\	8aL 8f 8c/	f
!	!	!LO:DY:rj
.	8fJ 8c 8A/	p
4D 4DD/	8r	.
.	8f 8d 8A/	.
4C 4CC/	8r	.
!LO:TX:t=[segno]:problem:znak segno na kresce taktowej	!LO:TX:t=[segno]:problem:znak segno na kresce taktowej	!
.	8g 8e 8c/	.
=35||	=35||	=35||
*>E	*>E	*>E
!	!LO:TX:a:i:t=dolce	!LO:DY:rj
(16F\LL	4.cc 4.a/	p
16c\	.	.
16A\	.	.
16c\JJ	.	.
*rep	*	*
16F\LL	.	.
16c\	.	.
16A\	(16bnLL 16g#X/	.
16c\JJ	16ccJJ 16a/	.
*Xrep	*	*
*rep	*	*
16F\LL	8ddL 8b-X/)	.
16c\	.	.
16A\	8ccJ 8a'/	.
16c\JJ)	.	.
*Xrep	*	*
!!LO:LB:g=original
=36	=36	=36
(16F\LL	8ddL 8b-'/	.
16c\	.	.
16A\	8ccJ 8a'/	.
16c\JJ	.	.
*rep	*	*
16F\LL	4.a 4.f'/	.
16c\	.	.
16A\	.	.
16c\JJ	.	.
*Xrep	*	*
*rep	*	*
16F\LL	.	.
16c\	.	.
16A\	(16gLL 16e/	.
16c\JJ)	16aJJ 16f/)	.
*Xrep	*	*
=37	=37	=37
(16C\LL	8ccL 8a'/	.
16c\	.	.
16G\	8b-J 8g'/	.
16c\JJ	.	.
*rep	*	*
16C\LL	4.g 4.e/	.
16c\	.	.
16G\	.	.
16c\JJ	.	.
*Xrep	*	*
*rep	*	*
16C\LL	.	.
16c\	.	.
16G\	(16aLL 16f/	.
16c\JJ)	16b-JJ 16g/)	.
*Xrep	*	*
=38	=38	=38
(16F\LL	8ddL 8b-'\	.
16c\	.	.
16A\	8ccJ 8a'\	.
16c\JJ	.	.
*rep	*	*
16F\LL	4.a 4.f/	.
16c\	.	.
16A\	.	.
16c\JJ	.	.
*Xrep	*	*
*rep	*	*
16F\LL	.	.
16c\	.	.
16A\	8cc 8a\	.
16c\JJ)	.	.
*Xrep	*	*
=39	=39	=39
16F\LL	4.cc 4.a\	.
16c\	.	.
16A\	.	.
16c\JJ	.	.
*rep	*	*
16F\LL	.	.
16c\	.	.
16A\	(16bnLL 16g#X/	.
16c\JJ	16ccJJ 16a/)	.
*Xrep	*	*
*rep	*	*
16F\LL	8ffL 8a\	.
16c\	.	.
16A\	8eeJ 8cc'\	.
16c\JJ	.	.
*Xrep	*	*
!!LO:LB:g=original
=40	=40	=40
(16BB-\LL	8eeL 8cc'\	.
16B-\	.	.
16F\	8cc#XJ 8a'\	.
16A\JJ	.	.
16BB-\LL	4.dd 4.b-\	.
16B-\	.	.
16F\	.	.
16B-\JJ	.	.
*rep	*	*
16BB-\LL	.	.
16B-\	.	.
16F\	8dd 8b-\	.
16B-\JJ)	.	.
*Xrep	*	*
=41	=41	=41
*^	*	*
(4C/	16C\LL	8cc 8a\	.
.	16A\	.	.
.	16F\	4ccc 4cc^<\	.
.	16A\JJ	.	.
*rep	*rep	*	*
4C/	16C\LL	.	.
.	16A\	.	.
.	16F\	8aaL 8a'\	.
.	16A\JJ)	.	.
*Xrep	*Xrep	*	*
(4BBn/	16BBn\LL	8ff 8f'\	.
.	16A-X\	.	.
.	16F\	8ddJ 8d'\	.
.	16A-\JJ)	.	.
*v	*v	*	*
=42	=42	=42
8AnL 8F 8C\	(16cc\LL	.
.	16ff\	.
8B-J 8G 8C\	16ee\	.
.	16gg\JJ)	.
8r	(4gg 4ee 4b-\	.
8CL 8CC/	.	.
8FJ 8FF/	8ff 8a\)	.
!	!LO:TX:t=P:problem:fermata nad kreską taktową	!
8r	8r;	.
=43:|!	=43:|!	=43:|!
*>F	*>F	*>F
*tremolo	*	*
!	!	!LO:DY:rj
(16FLL 16D\	8aa'\L	f
16A\	.	.
16F 16D\	(16gg#X\L	.
16A\	16bb-\JJ)	.
*	*rep	*
16F 16D\	8aa'\L	.
16A\	.	.
16F 16D\	(16gg#X\L	.
16A\	16bb-\JJ)	.
*	*Xrep	*
*	*rep	*
16F 16D\	8aa'\L	.
16A\	.	.
16F 16D\	(16gg#X\L	.
16A\JJ)	16bb-\JJ)	.
*	*Xrep	*
!!LO:LB:g=original
=44	=44	=44
(16FLL 16D\	8aa'\L	.
16A\	.	.
16F 16D\	8ff'\J	.
16A\	.	.
16F 16D\	(4.dd\	.
16A\	.	.
16F 16D\	.	.
16A\	.	.
16F 16D\	.	.
16A\	.	.
16F 16D\	16ee\LL	.
16A\JJ)	16ff\JJ)	.
=45	=45	=45
(16ELL 16C#X 16AA\	8ee'\L	.
16G\	.	.
16E 16C# 16AA\	8cc#X'\J	.
16G\	.	.
16E 16C# 16AA\	(4.a/	.
16G\	.	.
16E 16C# 16AA\	.	.
16G\	.	.
16E 16C# 16AA\	.	.
16G\	.	.
16E 16C# 16AA\	16bn\LL	.
16G\JJ)	16cc#\JJ)	.
=46	=46	=46
(16FLL 16D\	(16dd\LL	.
16A\	16cc#X\	.
16F 16D\	16dd\	.
16A\	16ee\JJ	.
16F 16D\	16ff\LL	.
16A\	16ee\	.
16F 16D\	16ff\	.
16A\	16gg\JJ	.
16F 16D\	8aa\L)	.
16A\	.	.
!	!LO:TUP:a:problem:klamra łukowa	!
16F 16D\	24aa\L	.
.	24bb-\	.
16A\JJ)	.	.
.	24bbn\JJ	.
!!LO:LB:g=original
=47	=47	=47
16GLL 16E\	8ccc'\L	.
16c\	.	.
16G 16E\	(16bbn\L	.
16c\	16ddd\JJ)	.
*	*rep	*
16G 16E\	8ccc'\L	.
16c\	.	.
16G 16E\	(16bbn\L	.
16c\	16ddd\JJ)	.
*	*Xrep	*
*	*rep	*
16G 16E\	8ccc'\L	.
16c\	.	.
16G 16E\	(16bbn\L	.
16c\JJ	16ddd\JJ)	.
*	*Xrep	*
=48	=48	=48
16ALL 16F\	8ccc'\L	.
16c\	.	.
16A 16F\	8aa'\J	.
16c\	.	.
16A 16F\	4.ff\	.
16c\	.	.
16A 16F\	.	.
16c\	.	.
16A 16F\	.	.
16c\	.	.
16A 16F\	8ff\	.
16c\JJ	.	.
=49	=49	=49
*^	*	*
(4D-X/	16D-X\LL	(4.ff\	.
.	16Bn\	.	.
.	16F\	.	.
.	16B\JJ	.	.
*rep	*rep	*	*
4D-X\	16D-X\LL	.	.
.	16Bn\	.	.
.	16F\	16ee-X\LL	.
.	16B\JJ)	16dd-X\JJ)	.
*Xrep	*Xrep	*	*
(4D-/	16D-\LL	(8dd-\L	.
.	16G\	.	.
.	16F\	16cc\L	.
.	16G\JJ)	16bn\JJ)	.
=50	=50	=50	=50
(4C/	16C\LL	4.cc\	.
.	16G\	.	.
.	16E\	.	.
.	16G\JJ)	.	.
*rep	*rep	*	*
(4C/	16C\LL	.	.
.	16G\	.	.
.	16E\	(8ee\	.
.	16G\JJ)	.	.
*Xrep	*Xrep	*	*
(4D-X/	16D-\LL	8ff\L)	.
.	16G\	.	.
.	16F\	(8bn\J	.
.	16G\JJ)	.	.
!!LO:LB:g=original
=51	=51	=51	=51
(4C/	16C\LL	4.cc\)	.
.	16G\	.	.
.	16E\	.	.
.	16G\JJ)	.	.
*rep	*rep	*	*
(4C/	16C\LL	.	.
.	16G\	.	.
.	16E\	8ee\	.
.	16G\JJ)	.	.
*Xrep	*Xrep	*	*
.	.	(8qgg/	.
(4D-X/	16D-\LL	8ff\L)	.
.	16G\	.	.
.	16F\	8bn'\J	.
.	16G\JJ)	.	.
*v	*v	*	*
=52	=52	=52
8E 8C\	8cc'\L	.
8r	(16dd#X\L	.
.	16ff\JJ	.
4r	8ee\L)	.
.	(16ff#X\L	.
.	16aa\JJ	.
4r	8gg\)	.
!	!LO:TX:b:i:t=d`al segno al fine.\net Polonez da capo.	!
!LO:TX:t=[segno]:problem:znak segno na kresce taktowej	!LO:TX:t=[segno]:problem:znak segno na kresce taktowej	!
.	8c/	.
==	==	==
*-	*-	*-
!!!system-decoration: {(s1,s2)}
!!!RDF**kern: > = above
!!!RDF**kern: < = below
!!!RDF**kern: | = vertical stroke
!!!ENC: Marta Lawrence
!!!END: 2021-05-03
!!!ENC: Tomasz Grochalski
!!!END: 2021-04-10
